X:1
T:Nihil est candoris
T:Ignatio Donati
T:Source : Primo libro di Motetti a voce sola---Venetia---A.Vincenti---1634. Editor : André Vierendeels (08/12/16).
T:Notes : Original clefs : C3, F4 Editorial accidentals above the staff Original note values have been halved in 3-beat measures Figures in BC are notated in original print m 26 in S : first "E" notated as quarter in original print "Alto o Basso cantando all' octava bassa"
T:Nihil est candoris
T:©
T:©
T:©
T:©
T:©
C:Ignatio Donati
Z:©
%%score 1 2
L:1/8
Q:1/4=120
M:6/4
K:F
V:1 treble nm="Alto" snm="A"
V:2 bass nm="MusicXML Part"
V:1
 C8 D4 | E2 D2 E2 F2 G2 A2 | F8 E4 | F4 F4 z4 | D8 E4 | F2 E2 G2 F2 E4 | D4 E8 | D8 z4 | E8 F4 | %9
w: Ni- hil|est _ _ _ _ _|_ can-|do- ris,|ni- hil|est _ _ _ _|splen- do-|ris,|ni- hil|
 G2 F2 E2 D2 F2 E2 | D2 C2 F2 E2 D4 | C4 D8 |[M:4/4] C8 | z4 F4- | F2 ED EEEF | G3 D F4 | %16
w: est _ _ _ _ _|_ _ _ _ _|vir- tu-|tis,|quod|_ non re- splen- de- at in|Vir- gi- ne|
 F>G AD E4 | D4 z2 E2- | E2 DC DDDE | F3 D E4 | E>F GC D4 | C8 | z4 D4- | D4 G4- | G2 ^FF G2 D2 | %25
w: glo- * * ri- o-|sa, quod|_ non re- splen- de- at in|Vir- gi- ne|glo- * * ri- o-|sa,|quae|_ ne-|* que ser- pen- tis|
 EDFE G2 FE | E8 |[M:6/4] D8 F4 | E6 D2 E2 F2 | G4 G4 G4 | F6 E2 D4 | E4 F4 D4 | C8 D4 | %33
w: per- su- a- si- o- ne de-|cep-|ta, nec|e- ius ve- ne-|no- sis af-|fla- ti- bus|in- fec- ta|est, nec|
 F6 F2 E2 D2 | E4 E4 F4 | G6 F2 D2 E2 | F8 E4 |[M:4/4] F8 | z4 D4- | D2 EF G2 F2 | E4 E2 A2- | %41
w: e- ius ve- ne-|no- sis af-|fla- ti- bus in|fec- ta|est,|haec|_ _ _ _ est|Vir- ga in|
 A2 GD E2 EE | ^FF G4 D2 | z2 E2 FECD | EGFE ^F2 G2- | G2 ^F2 G4 | z2 C4 DE | F2 E2 D4 | D2 G4 FC | %49
w: _ qua nec no- dus o-|ri- gi- na- lis,|nec cor- tex ve- ni-|a- lis cul- pae fu- *|* * it,|haec _ _|_ est Vir-|ga in- qua nec|
 D2 DD EE F2- | F2 C2 z2 E2 | FECD EDDC | D8 | C8 |] %54
w: no- dus o- ri- gi- na-|* lis, nec|cor- tex ve- ni- a- lis cul- pae|fu-|it.|
V:2
"^BC" C,8 B,,4 | C,8 C,4 | A,,4 B,,4 C,4 | F,,8 A,,4 | B,,4 D,4 C,4 | A,,4 G,,4 A,,4 | %6
"^6""^6""^#" ^F,,4 G,,4 A,,4 | D,8 z4 | C,8 A,,4 | G,,8 F,,4 | A,,4 F,,4 G,,4 | %11
"^6""^-natural""^6" E,,4 F,,4 G,,4 |[M:4/4] C,8 | F,,8 | B,,4 C,4 | G,,4 D,4 |"^#" D,4 A,,4 | %17
"^#" D,4 C,4 | A,,4 G,,4 | D,4 A,,4 |"^-natural" C,4 G,,4 | C,4 F,,4 |"^-natural" B,,6 A,,2 | %23
"^-natural""^-natural" G,,4 G,,4 |"^b""^#""^-natural" C,2 D,2 G,,4 | C,2 A,,2 G,,4 |"^#" A,,8 | %27
[M:6/4]"^#""^-natural" D,8 D,4 | A,,8 A,,4 | G,,4 G,4 E,4 | D,6 C,2 B,,4 | C,4 F,,4 G,,4 | %32
 C,8 D,4 | D,8 D,4 | C,4 C,4 A,,4 | G,,6 A,,2 B,,4 |"^-natural" A,,2 F,,2 B,,4 C,4 | %37
[M:4/4] F,,4 F,,4 | B,,6 A,,2 | G,,8 |"^#""^#" A,,4 A,,4 |"^-natural" ^F,,2 G,,2 C,4 | %42
"^#" D,2 G,,4 G,,2 |"^-natural" C,4 F,,4 |"^#" C,4 D,4 |"^#""^-natural" D,4 G,,4 | C,4 F,,4 | %47
"^-natural" F,,4 G,,4 |"^-natural" G,,4 E,,2 F,,2 | B,,4 C,2 G,,2 | A,,4 C,4 | F,,4 C,2 A,,2 | %52
 G,,8 | C,8 |] %54

